src/pos-icons/filter-plus.svg

<svg height="24" viewBox="0 0 24 24" width="24" xmlns="http://www.w3.org/2000/svg"><path d="m12 12v7.88c.04.3-.06.62-.29.83-.39.39-1.02.39-1.41 0l-2.01-2.01c-.23-.23-.33-.54-.29-.83v-5.87h-.03l-5.76-7.38c-.34-.43-.26-1.06.17-1.4.19-.14.4-.22.62-.22h14c.22 0 .43.08.62.22.43.34.51.97.17 1.4l-5.76 7.38zm3 5h3v-3h2v3h3v2h-3v3h-2v-3h-3z"/></svg>

<?xml version="1.0" encoding="UTF-8"?><!DOCTYPE svg PUBLIC "-//W3C//DTD SVG 1.1//EN" "http://www.w3.org/Graphics/SVG/1.1/DTD/svg11.dtd"><svg xmlns="http://www.w3.org/2000/svg" xmlns:xlink="http://www.w3.org/1999/xlink" version="1.1" id="mdi-filter-plus" width="24" height="24" viewBox="0 0 24 24"><path d="M12 12V19.88C12.04 20.18 11.94 20.5 11.71 20.71C11.32 21.1 10.69 21.1 10.3 20.71L8.29 18.7C8.06 18.47 7.96 18.16 8 17.87V12H7.97L2.21 4.62C1.87 4.19 1.95 3.56 2.38 3.22C2.57 3.08 2.78 3 3 3H17C17.22 3 17.43 3.08 17.62 3.22C18.05 3.56 18.13 4.19 17.79 4.62L12.03 12H12M15 17H18V14H20V17H23V19H20V22H18V19H15V17Z" /></svg>
